X:590
M:C|
L:1/8
K:F
fcdB AFF:|
f|afge f2 cB|AcfA BGGf|afge f2 cB|Acfc AFFf|afge f2 cB|Acfc BGGB|

